X:1
T:Mrs J Bishop's Strathspey -- Kew-Green, London
T:Mrs J Bishop's Strathspey -- Kew-Green, London
T:William Marshall
C:William Marshall
%%score { 1 2 }
L:1/8
M:4/4
K:F
V:1 treble 
V:2 bass 
V:1
 F | F<f f2 (f/e/)d/c/{Bc} d2 | (A/B/)c/d/ cA AGGA | Ff f2 (e/f/g/a/) b2 | af (e/f/)g/e/ af-f :| %5
 f/g/ | (a/g/)f/g/ af (g/f/)e/f/ ge | fd=Bg ec- c _B/c/ | (d/c/)B/c/ dB (c/B/)A/B/ cA | %9
 BGEc AF F f/g/ | (a/g/)f/g/ af (g/f/)e/f/ ge | fd=Bg ec- c _B/c/ | dB,B,d cA,A,c | BGEc AFF |] %14
V:2
 z | F,2 F,2 F,2 B,2 | A,2 F,2 C,2 C,2 | F,2 F,2 C2 C,2 | F,2 C,2 F,2 F, :| z | F,2 A,2 C2 C,2 | %7
 G,2 G,2 C,2 A,2 | B,2 B,2 A,2 F,2 | B,2 C2 F,2 F,2 | F,2 A,2 C2 C,2 | G,2 G,2 C,2 A,,2 | %12
 B,,2 B,,2 A,,2 F,,2 | B,,2 C,2 F,,2 F,, |] %14

